X: 1
T: The Glen Where the Deer Is
S: from Jerry Holland bk 2, Hamish Moore "Stepping on a Bridge" CD
F: http://terrytraub.org/abc/GlenWhereTheDeerIsR.abc
R: reel
M: 4/4
K: D
L: 1/8
|:\
"D"d2 ag fefg | "D"ad d/d/d "A"cdef |\
"D"d2 ag fefg | "G"f2 ed "A"cA A/A/A :|
|:\
"D"fd d/d/d "A"geeg | "D"fd d/d/d "A"cAAg |\
"D"fd d/d/d "A"geeg | "D"fded "A"cA A :|
